X: 25316
T: Mandy Murray's
R: reel
M: 4/4
K: Aminor
AB|:c2 (3ecB Aaga|e/e/deg ABde|~cAB(c c)ddf|ee/e/de cABc|
AFCA BGdB|~cAB(c c)dcd|eage dgBG|1 ABde cA:|2 ABde cA2d||
|:"
3
"~edcB cde^f|(^fg)ge de (3=fed|eaab aged|Bddc BcdB|
ABcA Bcdf|(de)ef edcB|AFcA BGd(B|1 B)cBd cBAd:|2 B)cBd cB||
"Last time round" 2 B)cBd cBA2||

